!!!!SEGMENT: pl-sa--228-a-vi-32--002_luna-georgius--litania-ex-d-kyrie.krn
!!!id: 17xx:447
!!!COM: Luna, Georgius
!!!COM-rism: pe41010079
!!!CDT:
!!!CNT:
!!!OTL: Litania ex D – Kyrie
!!!PDT:
!!!SMS-siglum: PL-SA
!!!SMS-shelfmark: 228/A VI 32
!!!NIFC-rismID: 1001068968
!!!URL-scan: http://bc.bdsandomierz.pl/dlibra/publication/1604/edition/1572/content
!!!ONB-nifc: UWAGA: części Litanii: Sinfonia, Kyrie, Pater de caelis, Sancta trinitas, Sancta Maria,
!!!SMS-variant: Violino Primo: PL-SA 228/A VI 32:11
!!!SMS-altvar: Violino Imo: PL-SA 228/A VI 32:29
**kern	**kern	**kern	**kern	**text	**kern	**text	**kern	**kern
*part7	*part6	*part5	*part4	*part4	*part3	*part3	*part2	*part1
*	*group3	*group3	*group2	*	*group2	*	*group1	*group1
*staff7	*staff6	*staff5	*staff4	*staff4	*staff3	*staff3	*staff2	*staff1
*I"Fondamemto	*I"Violino Secundo	*I"Violino Primo	*I"Tenore	*	*I"Canto	*	*I"Clarino Socundo	*I"Clarino Primo
*I'bc	*I'vl 2	*I'vl 1	*I'T	*	*I'S	*	*I'clno 2 in D	*I'clno 1 in D
*clefF4	*clefG2	*clefG2	*clefC4	*	*clefC1	*	*clefG2	*clefG2
*	*	*	*	*	*	*	*ITrd-1c-2	*ITrd-1c-2
*k[f#c#]	*k[f#c#]	*k[f#c#]	*k[f#c#]	*	*k[f#c#]	*	*k[f#c#]	*k[f#c#]
*M4/4	*M4/4	*M4/4	*M4/4	*	*M4/4	*	*M4/4	*M4/4
*met(c)	*met(c)	*met(c)	*met(c)	*	*met(c)	*	*met(c)	*met(c)
=1	=1	=1	=1	=1	=1	=1	=1	=1
!LO:TX:a:t=adagio	!LO:TX:a:t=adagio	!LO:TX:a:t=adagio	!LO:TX:a:t=adagio	!	!LO:TX:a:t=Adagio	!	!LO:TX:a:t=adagio	!LO:TX:a:t=adagio
!LO:TX:b:t=Kirie	!LO:TX:b:t=Kirie	!LO:TX:b:t=Kirie	!LO:TX:a:t=P:problem:krzyżyki cc# f#	!	!LO:TX:a:t=P:problem:krzyżyki cc# f#	!	!LO:TX:b:t=Kyrie	!LO:TX:b:t=Kirie
4.D\	4.ff#\	4.aa\	4.d\	Ki-	4.ff#\	Ki-	4.dd\	4.ff#\
8D\	8ff#\	8aa\	8d\	-ri-	8ff#\	-ri-	8dd\	8ff#\
4D\	4ff#\	4aa\	4d\	-e	4ff#\	-e	4dd\	4ff#\
4r	4r	4dd\	4r	.	4dd\	e-	4r	4r
=2	=2	=2	=2	=2	=2	=2	=2	=2
4r	4r	1ccn	4r	.	1ccn	-lei-	4r	4r
4D\	4a/	.	4A\	e-	.	.	4dd\	4dd\
*2\right	*	*	*2\right	*	*	*	*	*
2D\	2a/	.	2A\	-lei-	.	.	4dd\	4dd\
.	.	.	.	.	.	.	4dd\	4dd\
=3	=3	=3	=3	=3	=3	=3	=3	=3
4G\	4g/	4b\	4G/	-son	4b\	-son	4dd\	4dd\
*	*2\right	*	*	*	*	*	*	*
4r	2gg\	4gg\	4g\	e-	4r	.	4r	4r
*	*	*2\right	*	*	*	*	*	*
4r	.	[2gg\	[2g\	-lei-	4r	.	4r	4r
4A\	4ee\	.	.	.	4ee\	e-	4a/	4ee\
=4	=4	=4	=4	=4	=4	=4	=4	=4
*	*	*	*	*	*2\right	*	*	*
2A\	2ee\	2gg\]	2g\]	.	2ee\	-lei-	4a/	4ee\
.	.	.	.	.	.	.	4a/	4ee\
4D\	4dd\	4ff#\	4f#\	-son	4dd\	-son	4dd\	4ff#\
4D\	4dd\	4dd\	[4d\	ki-	(4dd\	ki-	4r	4r
=5	=5	=5	=5	=5	=5	=5	=5	=5
2.D\	4dd\	4ee\	4d\]	.	4ee\)	.	0r	0r
!	!	!	!LO:SIC:s=4cn:v	!	!	!	!	!
.	4ccn\	4ee\	4c#\	-ri-	4ee\	-ri-	.	.
.	4a/	4ff#\	4A\	-e	4ff#\	-e	.	.
4G\	4b/	4gg\	4B\	e-	4gg\	e-	.	.
=6	=6	=6	=6	=6	=6	=6	=6	=6
2C#X/	2ee\	2gg\	2B\	-lei-	2gg\	-lei-	.	.
4D/	4dd\	4ff#\	4A\	-son	4ff#\	-son	.	.
4d\	4a/	4ff#\	4d\	e-	4ff#\	e-	.	.
=7	=7	=7	=7	=7	=7	=7	=7	=7
*	*	*	*	*	*	*	*2\right	*2\right
2G#X\	2dd\	2ff#\	2d\	-lei-	2ff#\	-lei-	2dd\	2ff#\
4A\	4cc#X\	4ee\	4c#\	-son	4ee\	-son	4a/	4ee\
4D\	4dd\	4ff#\	4d\	e-	4ff#\	e-	4dd\	4ff#\
!	!	!LO:LB:g=original	!	!	!	!	!	!
=8	=8	=8	=8	=8	=8	=8	=8	=8
4A\	2cc#\	2ee\	2c#\	-lei-	2ee\	-lei-	2a/	2ee\
4AA/	.	.	.	.	.	.	.	.
!	!LO:TX:a:t=P:problem:pojedyncza kreska taktowa	!	!	!	!	!	!	!
2D\	2dd;\	2ff#\	2d\	-son	2ff#\	-son	2dd\	2ff#;;\
!	!	!	!	!	!	!	!	!LO:TX:b:t=P:problem:zamazany napis "Sancta Maria Tacet"
!	!	!	!LO:LB:g=original	!	!LO:LB:g=original	!	!	!LO:LB:g=original
=9||	=9	=9||	=9||	=9||	=9||	=9||	=9||	=9||
*M4/4	*M4/4	*M4/4	*	*	*	*	*	*
*met(c)	*met(c)	*met(c)	*	*	*	*	*	*
!LO:TX:a:t=Allo	!LO:TX:a:t=Allo&colon;	!LO:TX:a:t=Allo	!LO:TX:a:t=Allo&colon;	!	!	!	!LO:TX:a:t=Allo&colon;	!LO:TX:a:t=Allo.
8D\L	16dd\LL	16dd\LL	8.d\	ki-	8.ff#\	Ki-	8dd\L	8ff#\L
.	16ee\	16ee\	.	.	.	.	.	.
8D\	16ff#\	16ff#\	.	.	.	.	8dd\	8ff#\
.	16gg\JJ	16gg\JJ	16d\	-ri-	16ff#\	-ri-	.	.
8D\	16aa\LL	16aa\LL	4d\	-e	4ff#\	-e	8dd\	8ff#\
.	16bb\	16bb\	.	.	.	.	.	.
8D\J	16ccc#\	16ccc#\	.	.	.	.	8dd\J	8ff#\J
.	16ddd\JJ	16ddd\JJ	.	.	.	.	.	.
8D\L	16dd\LL	16dd\LL	8.d\	ki-	8.ff#\	ki-	8dd\L	8ff#\L
.	16ee\	16ee\	.	.	.	.	.	.
8D\	16ff#\	16ff#\	.	.	.	.	8dd\	8ff#\
.	16gg\JJ	16gg\JJ	16d\	-ri-	16ff#\	-ri-	.	.
8D\	16aa\LL	16aa\LL	4d\	-e	4ff#\	-e	8dd\	8ff#\
.	16bb\	16bb\	.	.	.	.	.	.
8D\J	16ccc#\	16ccc#\	.	.	.	.	8dd\J	8ff#\J
.	16ddd\JJ	16ddd\JJ	.	.	.	.	.	.
!	!LO:LB:g=original	!	!	!	!	!	!	!
=10	=10	=10	=10	=10	=10	=10	=10	=10
!LO:TX:a:t=P:problem:mixed beam	!	!	!	!	!	!	!	!
8D\L	16dd\LL	16dd\LL	4d\	e-	(4ff#\	e-	8dd\	8ff#\
.	16ddd\	16ddd\	.	.	.	.	.	.
8G\	16ccc#\	16ccc#\	.	.	.	.	4ff#\	4aa\
.	16bb\JJ	16bb\JJ	.	.	.	.	.	.
8A\	16aa\LL	16aa\LL	4c#\	.	4ee\)	.	.	.
.	16gg\	16gg\	.	.	.	.	.	.
8AA/J	16ff#\	16ff#\	.	.	.	.	8ee\	8gg\
.	16ee\JJ	16ee\JJ	.	.	.	.	.	.
!LO:TX:a:t=P:problem:mixed beam	!	!	!	!	!	!	!	!
16D/LL	16dd\LL	16dd\LL	4d\	-lei-	4ff#\	-lei-	8dd\	8ff#\
16d\	16dd\	16dd\	.	.	.	.	.	.
16c#\	16cc#\	16cc#\	.	.	.	.	4ff#\	4aa\
16B\JJ	16b\JJ	16b\JJ	.	.	.	.	.	.
16A\LL	16a/LL	16a/LL	4c#\	.	4ee\	.	.	.
16G\	16g/	16g/	.	.	.	.	.	.
16F#\	16f#/	16f#/	.	.	.	.	8ee\	8gg\
16E\JJ	16e/JJ	16e/JJ	.	.	.	.	.	.
!LO:LB:g=original	!	!	!	!	!	!	!	!
=11	=11	=11	=11	=11	=11	=11	=11	=11
8D\L	4d/	4d/	4d\	-son	4ff#\	-son	8dd\L	8ff#\L
8E\	.	.	.	.	.	.	16ff#\L	16aa\L
.	.	.	.	.	.	.	16ee\JJ	16gg\JJ
8F#\	8r	8r	8r	.	8r	.	8dd\L	8ff#\L
8D\J	8dd\	8dd\	8d\	e-	8ff#\	e-	8dd\J	8ff#\J
8E\L	8ee\L	8ee\L	8c#\L	-lei-	8ee\L	-lei-	4a/	4ee\
8D\	8ff#\J	8ff#\J	8d\J	.	8ff#\J	.	.	.
8C#\	4gg\	4gg\	4e\	.	4gg\	.	4r	4r
8AA\J	.	.	.	.	.	.	.	.
=12	=12	=12	=12	=12	=12	=12	=12	=12
4D\	16ff#\LL	16ff#\LL	4d\	-son	4ff#\	-son	8dd\L	8ff#\L
.	16dd\	16dd\	.	.	.	.	.	.
.	16a\	16a\	.	.	.	.	16dd\L	16ff#\L
.	16f#\JJ	16f#\JJ	.	.	.	.	16ee\JJ	16gg\JJ
!LO:TX:a:t=P:problem:mixed beam	!	!LO:TX:a:t=P:problem:mixed beam	!	!	!	!	!	!
8D/L	8d/L	8d/L	8r	.	8r	.	8ff#\L	8aa\L
8d\J	8a/J	16aa\L	8d\	e-	8ff#\	e-	8dd\J	8ff#\J
.	.	16ff#\JJ	.	.	.	.	.	.
!	!	!	!	!	!	!	!LO:LB:g=original	!
8c#\L	8cc#\	8ee\	8c#\L	-lei-	8ee\L	-lei-	4a/	4ee\
8B\	4cc#\	4aa\	8d\	.	8dd\	.	.	.
8A\	.	.	8e\	.	8cc#\	.	4r	4r
8G#X\J	8b\	8gg#X\	8d\J	.	8b\J	.	.	.
!	!	!LO:LB:g=original	!	!	!	!	!	!
=13	=13	=13	=13	=13	=13	=13	=13	=13
8A\L	8cc#\	8aa\	8c#\L	.	8cc#\L	.	4a/	4ee\
8B\	4cc#\	4ee\	8B\J	.	8dd\J	.	.	.
8c#\	.	.	8A\	-son	8ee\	-son	8r	4r
8d\J	8a\	16aa\LL	8d\	e-	8ff#\	e-	8a/	.
.	.	16ff#\JJ	.	.	.	.	.	.
8c#\L	8cc#\	8ee\	8c#\L	-lei-	8ee\L	-lei-	4dd\	4ee\
8B\	4cc#\	4aa\	8d\	.	8dd\	.	.	.
8A\	.	.	8e\	.	8cc#\	.	4a/	4r
8G#X\J	8b\	8gg#X\	8d\J	.	8b\J	.	.	.
=14	=14	=14	=14	=14	=14	=14	=14	=14
!	!	!	!	!	!	!	!LO:TX:a:t=P:problem:nadliczbowy takt w Clno 2	!
8A\L	8cc#\	8aa\	8c#\L	.	8cc#\L	.	1ryy	4ee\
8B\	4cc#\	4ee\	8B\J	.	8dd\J	.	.	.
8c#\	.	.	8A\	-son	8ee\	-son	.	8r
8A\J	8ee\	8ee\	8c#\	e-	8ee\	e-	.	8ee\
!	!	!	!	!	!LO:LB:g=original	!	!	!
8d\L	16ff#\LL	16ff#\LL	8d\L	-lei-	8ff#\L	-lei-	.	4ff#\
.	16gg#X\	16gg#X\	.	.	.	.	.	.
8B\	16aa\	16aa\	8f#\J	.	16ee\L	.	.	.
.	16bb\JJ	16bb\JJ	.	.	16dd\JJ	.	.	.
8c#\	16ee\LL	16ee\LL	8c#\L	.	8ee\L	.	.	4ee\
.	16ff#\	16ff#\	.	.	.	.	.	.
8A\J	16gg#\	16gg#X\	8e\J	.	16dd\L	.	.	.
.	16aa\JJ	16aa\JJ	.	.	16cc#\JJ	.	.	.
!	!	!	!LO:LB:g=original	!	!	!	!	!
=15	=15	=15	=15	=15	=15	=15	=15	=15
8B\L	16dd\LL	16dd\LL	8B\L	.	8dd\L	.	4ee\	4ee\
.	16ee\	16ee\	.	.	.	.	.	.
8E\	16ff#\	16ff#\	8d\J	.	16cc#\L	.	.	.
.	16gg#X\JJ	16gg#X\JJ	.	.	16b\JJ	.	.	.
8A\	8aa\L	8aa\L	8A\	-son	8cc#\	-son	8a\L	8ee\L
8D\J	8dd\J	8dd\J	8B\	e-	8dd\	e-	8ee\J	8aa\J
!	!	!	!	!	!	!	!LO:N:vis=8	!
4E\	4cc#\	4cc#\	4A/	-lei-	4cc#\	-lei-	4ee\L	4aa\
!	!	!	!LO:SIC:s=4G#:v	!	!	!	!LO:N:vis=8	!
4EE/	4bT\	4bT\	4G/	.	4bT\	.	4ee\J	4gg#X\
=16	=16	=16	=16	=16	=16	=16	=16	=16
*tremolo	*	*	*	*	*	*	*	*
8AA/L	16a\LL	16a\LL	4A\	-son.	4a\	-son	8a/L	8a/L
.	16b\	16b\	.	.	.	.	.	.
8AA/	16cc#\	16cc#\	.	.	.	.	8a/	8a/
.	16dd\JJ	16dd\JJ	.	.	.	.	.	.
8AA/	16ee\LL	16ee\LL	4r	.	4r	.	8a/	8a/
.	16ff#\	16ff#\	.	.	.	.	.	.
8AA/J	16gg#X\	16gg#X\	.	.	.	.	8a/J	8a/J
.	16aa\JJ	16aa\JJ	.	.	.	.	.	.
!	!LO:LB:g=original	!	!	!	!	!	!	!
8AA/L	16a\LL	16a\LL	2r	.	2r	.	8a/L	8a/L
.	16b\	16b\	.	.	.	.	.	.
8AA/	16cc#\	16cc#\	.	.	.	.	8a/	8a/
.	16dd\JJ	16dd\JJ	.	.	.	.	.	.
8AA/	16ee\LL	16ee\LL	.	.	.	.	8a/	8a/
.	16ff#\	16ff#\	.	.	.	.	.	.
8AA/J	16gg#X\	16gg#X\	.	.	.	.	8a/J	8a/J
.	16aa\JJ	16aa\JJ	.	.	.	.	.	.
*Xtremolo	*	*	*	*	*	*	*	*
=17	=17	=17	=17	=17	=17	=17	=17	=17
!	!LO:TX:a:t=P:problem:mixed beam	!LO:TX:a:t=P:problem:mixed beam	!	!	!	!	!	!
8AA/L	16a/LL	16a/LL	0r	.	0r	.	4a/	4a/
.	16aa\	16aa\	.	.	.	.	.	.
8D/J	16gg#X\	16gg#X\	.	.	.	.	.	.
.	16ff#\JJ	16ff#\JJ	.	.	.	.	.	.
!LO:TX:a:t=P:problem:mixed beam	!	!	!	!	!	!	!	!
8E\L	16ee\LL	16ee\LL	.	.	.	.	4r	4r
.	16dd\	16dd\	.	.	.	.	.	.
8EE/J	16cc#\	16cc#\	.	.	.	.	.	.
.	16b\JJ	16b\JJ	.	.	.	.	.	.
!LO:TX:a:t=P:problem:mixed beam	!	!	!	!	!	!	!	!
16AA/LL	16a/LL	16a/LL	.	.	.	.	4a/	4a/
16A\	16a/	16a/	.	.	.	.	.	.
16G#X\	16g#X/	16g#X/	.	.	.	.	.	.
16F#\JJ	16f#/JJ	16f#/JJ	.	.	.	.	.	.
16E\LL	16e/LL	16e/LL	.	.	.	.	4r	4r
16D\	16d/	16d/	.	.	.	.	.	.
16C#\	16c#/	16c#/	.	.	.	.	.	.
16BB\JJ	16B/JJ	16B/JJ	.	.	.	.	.	.
!	!	!	!	!	!	!	!	!LO:LB:g=original
=18	=18	=18	=18	=18	=18	=18	=18	=18
!	!LO:TX:a:t=P:problem:mixed beam	!LO:TX:a:t=P:problem:mixed beam	!	!	!	!	!	!
8AA/L	8A/L	8A/L	.	.	.	.	4ee\	4ee\
8D/J	8aa\J	8aa\J	.	.	.	.	.	.
!LO:TX:a:t=P:problem:mixed beam	!	!	!	!	!	!	!	!
8E\L	4gg#Xt\	4gg#X\	.	.	.	.	4ee\	4ee\
8EE/J	.	.	.	.	.	.	.	.
!	!	!LO:LB:g=original	!	!	!	!	!	!
!	!LO:TX:a:t=P:problem:mixed beam	!LO:TX:a:t=P:problem:mixed beam	!	!	!	!	!	!
8AA/L	16aa\LL	16aa\LL	.	.	.	.	8a/L	8ee\L
.	16a/	16a/	.	.	.	.	.	.
8AA/J	16cc#/	16cc#/	.	.	.	.	16a/L	16ee\L
.	16ee/JJ	16ee/JJ	.	.	.	.	16a/JJ	16ee\JJ
4AA/	4aa\	4aa\	.	.	.	.	4a/	4ee\
=19	=19	=19	=19	=19	=19	=19	=19	=19
*tremolo	*	*	*	*	*	*	*	*
8A\L	16cc#\LL	16ee\LL	4c#\	Chri-	4ee\	Chri-	8a/	8ee\
.	16a\J	16a\J	.	.	.	.	.	.
8A\	8aT\J	8aT\J	.	.	.	.	8r	8r
8A\	16dd\LL	16ff#\LL	4d\	-ste	4ff#\	-ste	8dd\	8ff#\
.	16a\J	16a\J	.	.	.	.	.	.
8A\J	8aT\J	8aT\J	.	.	.	.	8r	8r
8A\L	16ee\LL	16gg\LL	8e\	au-	8gg\	au-	8ee\	8gg\
.	16a\J	16a\J	.	.	.	.	.	.
8A\	8aT\J	8aT\J	8e\	-di	8gg\	-di	8r	8r
8A\	16dd\LL	16ff#\LL	4d\	nos	4ff#\	nos	8dd\	8ff#\
.	16a\J	16a\J	.	.	.	.	.	.
8A\J	8aT\J	8aT\J	.	.	.	.	8r	8r
=20	=20	=20	=20	=20	=20	=20	=20	=20
8A\L	16cc#\LL	16ee\LL	4c#\	Chri-	4ee\	Chri-	8a/	8ee\
.	16a\J	16a\J	.	.	.	.	.	.
8A\	8aT\J	8aT\J	.	.	.	.	8r	8r
8A\	16dd\LL	16ff#\LL	8d\	-ste	8ff#\	-ste	8dd\	8ff#\
.	16a\J	16a\J	.	.	.	.	.	.
8A\J	8aT\J	8aT\J	8d\	ex-	8ff#\	ex-	8r	8r
8A\L	16ee\LL	16gg\LL	4e\	-au-	4gg\	-au-	8ee\	8gg\
.	16a\J	16a\J	.	.	.	.	.	.
8A\	8aT\J	8aT\J	.	.	.	.	8r	8r
8A\	16dd\LL	16ff#\LL	4d\	-di	4ff#\	-di	8dd\	8ff#\
.	16a\J	16a\J	.	.	.	.	.	.
8A\J	8aT\J	8aT\J	.	.	.	.	8r	8r
!LO:LB:g=original	!	!	!	!	!	!	!	!
=21	=21	=21	=21	=21	=21	=21	=21	=21
!LO:TX:a:t=P:problem:mixed beam	!	!	!	!	!	!	!	!
8A\L	8dd\L	8ff#\L	8d\L	nos	8ff#\L	nos	8dd\L	8ff#\L
8AA/	8cc#\J	8ee\J	8c#\J	.	8ee\J	.	16a\L	16ee\L
.	.	.	.	.	.	.	16a\JJ	16ee\JJ
8A\	16a\LL	16a\LL	8c#\	Chri-	8ee\	Chri-	8a\L	8ee\L
.	16cc#\	16cc#\	.	.	.	.	.	.
8A\J	16ee\	16ee\	8c#\	-ste	8ee\	-ste	8a\J	8ee\J
.	16gg\JJ	16gg\JJ	.	.	.	.	.	.
!LO:TX:a:t=P:problem:mixed beam	!	!	!	!	!	!	!	!
8D/L	8dd\	8ff#\	8d\	au-	8ff#\	au-	8dd\	8ff#\
8d\J	4ff#\	4aa\	4f#\	.	4aa\	.	4ff#\	4aa\
8F#\L	.	.	.	.	.	.	.	.
8A\J	8ee\	8gg\	8e\	-di	8gg\	-di	8ee\	8gg\
!	!	!	!	!	!LO:LB:g=original	!	!LO:LB:g=original	!
=22	=22	=22	=22	=22	=22	=22	=22	=22
!	!	!	!LO:TX:a:t=P:problem:takt zapisany repetycją	!	!	!	!	!
4D\	16dd\LL	16ff#\LL	8d\Lyy	nos	4ff#\	nos	8dd\L	8ff#\L
.	16dd\	16dd\	.	.	.	.	.	.
.	16a\	16a\	8c#\Jyy	.	.	.	16dd\L	16ff#\L
.	16f#\JJ	16f#\JJ	.	.	.	.	16dd\JJ	16ff#\JJ
8r	16d/LL	16d/LL	8c#\yy	Chri-	8r	.	8dd\L	8ff#\L
.	16f#/	16f#/	.	.	.	.	.	.
8A\	16a/	16a/	8c#\yy	-ste	8ee\	ex-	8a\J	8ee\J
.	16dd/JJ	16dd/JJ	.	.	.	.	.	.
!LO:TX:a:t=P:problem:mixed beam	!	!	!	!	!	!	!	!
8D/L	8dd\	8ff#\	8d\yy	au-	8ff#\	-au-	8dd\	8ff#\
8d\	4ff#\	4aa\	4f#\yy	.	4aa\	.	4ff#\	4aa\
8F#\	.	.	.	.	.	.	.	.
8A\J	8ee\	8gg\	8e\yy	-di	8gg\	-di	8ee\	8gg\
!	!LO:LB:g=original	!	!	!	!	!	!	!
=23	=23	=23	=23	=23	=23	=23	=23	=23
!LO:TX:a:t=P:problem:mixed beam	!	!	!	!	!	!	!	!
8D/L	8dd\L	8ff#\L	8d\	nos	8ff#\	nos	4dd\	4ff#\
8d\J	8ff#\J	8aa\	8A\	Chri-	8ff#\	Chri-	.	.
16c#\LL	16ee\LL	8aa\	8A\	-ste	16ee\LL	-ste	4r	4r
16B\	16dd\	.	.	.	16dd\JJ	.	.	.
16A\	16cc#\	8ddd\J	8d\	ex-	16cc#\LL	ex-	.	.
16G\JJ	16b\JJ	.	.	.	16b\JJ	.	.	.
!	!	!	!LO:LB:g=original	!	!	!	!	!
8F#\L	8a\L	8ccc#\L	8c#\	-au-	8a\L	-au-	4dd\	4ff#\
8G\J	8dd\	8bb\J	4d\	.	8b\J	.	.	.
16F#\LL	8dd\	16aa\LL	.	.	16a\LL	.	4r	4r
16E\	.	16gg\	.	.	16g\JJ	.	.	.
16D\	8gg\J	16ff#\	8g\	-di	16f#/LL	-di	.	.
16C#\JJ	.	16ee\JJ	.	.	16e/JJ	.	.	.
!	!	!LO:LB:g=original	!	!	!	!	!	!
=24	=24	=24	=24	=24	=24	=24	=24	=24
!LO:TX:a:t=P:problem:mixed beam	!	!	!	!	!	!	!	!
8D\L	8ff#\L	8dd\L	8f#\	nos	8f#/	nos	8dd\L	8ff#\L
8G\	8ee\	8gg\J	8g\	ex-	8ee\	ex-	8ee\J	8gg\
!	!	!	!	!	!	!	!	!LO:TX:a:t=d
8A\	8.cc#\	8.ee\L	8.e\	-au-	8.cc#\	-au-	8a/L	8.ee\
8AA/J	.	.	.	.	.	.	8a/J	.
!	!	!	!	!	!	!	!	!LO:TX:a:t=d
.	16cc#\Jk	16ee\Jk	16e\	-di	16cc#\	-di	.	16ee\Jk
!LO:TX:a:t=P:problem:mixed beam	!	!	!	!	!	!	!	!
8D/L	8dd\L	8ff#\L	8f#\	nos	8dd\	nos	4dd\	4ff#\
8d\J	8ff#\J	8aa\	8A\	Chri-	8ff#\	Chri-	.	.
16c#\LL	16ee\LL	8aa\	8A\	-ste	16ee\LL	-ste	4r	4r
16B\	16dd\	.	.	.	16dd\JJ	.	.	.
16A\	16cc#\	8ddd\J	8d\	ex-	16cc#\LL	ex-	.	.
16G\JJ	16b\JJ	.	.	.	16b\JJ	.	.	.
!	!	!	!	!	!	!	!	!LO:LB:g=original
=25	=25	=25	=25	=25	=25	=25	=25	=25
8F#\L	8a\L	8ccc#\L	8c#\	-ad-	8a\L	-au-	4dd\	4ff#\
8G\J	8dd\	8bb\J	4d\	.	8b\J	.	.	.
16F#\LL	8dd\	16aa\LL	.	.	16a\LL	.	4r	4r
16E\	.	16gg\	.	.	16g\JJ	.	.	.
16D\	8gg\J	16ff#\	8g\	-di	16f#/LL	-di	.	.
16C#\JJ	.	16ee\JJ	.	.	16e/JJ	.	.	.
!LO:TX:a:t=P:problem:mixed beam	!	!	!	!	!	!	!	!
8D\L	8ff#\L	8dd\L	8f#\	nos	8f#/	nos	8dd\L	8ff#\L
8G\	8ee\	8gg\J	8g\	ex-	8ee\	ex-	8ee\	8gg\
.	.	.	.	.	8qqdd/	.	.	.
8A\	8.cc#\	8.ee\L	8.e\	-au-	8.cc#\	-au-	8a\	8ee\
8AA/J	.	.	.	.	.	.	8a\J	8ee\J
.	16cc#\Jk	16ee\Jk	16e\	-di	16cc#\	-di	.	.
!	!	!	!	!	!LO:LB:g=original	!	!	!
=26	=26	=26	=26	=26	=26	=26	=26	=26
!LO:TX:a:t=P:problem:zbędna powtórka t. 25 w Clno 2	!LO:TX:a:t=P:problem:zbędna powtórka t. 25 w Clno 2	!LO:TX:a:t=P:problem:zbędna powtórka t. 25 w Clno 2	!LO:TX:a:t=P:problem:zbędna powtórka t. 25 w Clno 2	!	!LO:TX:a:t=P:problem:zbędna powtórka t. 25 w Clno 2	!	!LO:TX:a:t=P:problem:zbędna powtórka t. 25	!LO:TX:a:t=P:problem:nadliczbowy takt w Clno 2
1ryy	1ryy	1ryy	1ryy	.	1ryy	.	4dd\	1ryy
.	.	.	.	.	.	.	4r	.
.	.	.	.	.	.	.	8dd\L	.
.	.	.	.	.	.	.	8ee\	.
.	.	.	.	.	.	.	8a\	.
.	.	.	.	.	.	.	8a\J	.
=27	=27	=27	=27	=27	=27	=27	=27	=27
*	*tremolo	*tremolo	*	*	*	*	*	*
8D\L	16dd\LL	16dd\LL	4f#\	nos	4dd\	nos	8dd\L	8ff#\L
.	16dd\	16dd\	.	.	.	.	.	.
8D\	16dd\	16dd\	.	.	.	.	8dd\	8ff#\
.	16dd\JJ	16dd\JJ	.	.	.	.	.	.
8D\	16dd\LL	16ff#\LL	4d\	Chri-	4ff#\	Chri-	8dd\	8ff#\
.	16dd\	16ff#\	.	.	.	.	.	.
8D\J	16dd\	16ff#\	.	.	.	.	8dd\J	8ff#\J
.	16dd\JJ	16ff#\JJ	.	.	.	.	.	.
8D\L	16ff#\LL	16aa\LL	4d\	-ste	4ff#\	-ste	8dd\L	8ff#\L
.	16ff#\	16aa\	.	.	.	.	.	.
8D\	16ff#\	16aa\	.	.	.	.	8dd\	8ff#\
.	16ff#\JJ	16aa\JJ	.	.	.	.	.	.
!	!	!	!	!	!LO:N:vis=8	!	!	!
8D\	16aa\LL	16ddd\LL	4d\	ex-	4ff#\	ex-	8dd\	8ff#\
.	16aa\	16ddd\	.	.	.	.	.	.
8D\J	16aa\	16ddd\	.	.	.	.	8dd\J	8ff#\J
.	16aa\JJ	16ddd\JJ	.	.	.	.	.	.
*Xtremolo	*Xtremolo	*Xtremolo	*	*	*	*	*	*
=28	=28	=28	=28	=28	=28	=28	=28	=28
4G\	4ee\	4gg\	4e\	-au-	4gg\	-adu-	4ee\	4gg\
4A\	4cc#\	4ee\	4c#\	-di	4ee\	-di	4a/	4ee\
!	!LO:TX:a:t=P:problem:mixed beam	!	!	!	!	!	!	!
8D\L	8dd\L	8ff#\L	4d\	nos	4ff#\	nos	8dd\L	8ff#\L
16D\L	16f#/L	16a\L	.	.	.	.	16dd\L	16ff#\L
16D\JJ	16f#/JJ	16a\JJ	.	.	.	.	16dd\JJ	16ff#\JJ
8D\L	8f#/L	8a/L	4r	.	4r	.	8dd\L	8ff#\L
8D\J	8f#/J	8a/J	.	.	.	.	8dd\J	8ff#\J
=29	=29	=29	=29	=29	=29	=29	=29	=29
4D\	4f#/	4a/	1r	.	1r	.	4dd\	4ff#\
4r	4r	4r	.	.	.	.	4r	4r
2r	2r	2r	.	.	.	.	2r;	2r
==;	==;	==	==	==	==;	==	==	==
*-	*-	*-	*-	*-	*-	*-	*-	*-
!!!system-decoration: [g1][g2][g3]s7
!!!ENC: Marta Lawrence
!!!END: 2020-10-14
!!!ENC: Krzysztof Stępień
!!!END: 2020-05-20
